brandFactory_export/2.Regular/Menu_2Regular.svg

<?xml version="1.0" encoding="UTF-8"?>
<svg width="24px" height="24px" viewBox="0 0 24 24" version="1.1" xmlns="http://www.w3.org/2000/svg" xmlns:xlink="http://www.w3.org/1999/xlink">
    <title>2.Regular/Menu_2Regular</title>
    <g id="Symbols" stroke="none" stroke-width="1" fill="none" fill-rule="evenodd">
        <g id="2.Regular/Menu_2Regular" fill="#5CB615" fill-rule="nonzero">
            <path d="M2.01176471,4.99663866 C1.4605042,5.00336134 1.01008403,4.56302521 1,4.01176471 C1,3.47058824 1.45378151,3.02689076 2.01176471,3.02689076 L23.6084034,3.02689076 C24.1663866,3.02689076 24.6201681,3.46722689 24.6201681,4.01176471 C24.610084,4.56302521 24.1596639,5.00336134 23.6084034,4.99663866 L2.01176471,4.99663866 Z M23.6117647,10.902521 C24.1697479,10.902521 24.6235294,11.3428571 24.6235294,11.887395 C24.6168067,12.4386555 24.1630252,12.8789916 23.6117647,12.8722689 L2.01176471,12.8722689 C1.4605042,12.8789916 1.00672269,12.4386555 1,11.887395 C1,11.3428571 1.45378151,10.902521 2.01176471,10.902521 L23.6117647,10.902521 L23.6117647,10.902521 Z M23.6117647,18.7781513 C24.1697479,18.7781513 24.6235294,19.2184874 24.6235294,19.7630252 C24.6168067,20.3142857 24.1630252,20.7546218 23.6117647,20.7478992 L2.01176471,20.7478992 C1.4605042,20.7546218 1.00672269,20.3142857 1,19.7630252 C1,19.2184874 1.45378151,18.7781513 2.01176471,18.7781513 L23.6117647,18.7781513 Z" id="Menu_2Regular"></path>
        </g>
    </g>
</svg>

<svg width="24" height="24" viewBox="0 0 24 24" xmlns="http://www.w3.org/2000/svg"><path d="M2.012 4.997A1 1 0 011 4.012c0-.541.454-.985 1.012-.985h21.596c.558 0 1.012.44 1.012.985a1 1 0 01-1.012.985H2.012zm21.6 5.906c.558 0 1.012.44 1.012.984a.999.999 0 01-1.012.985h-21.6A.999.999 0 011 11.887c0-.544.454-.984 1.012-.984h21.6zm0 7.875c.558 0 1.012.44 1.012.985a.999.999 0 01-1.012.985h-21.6A.999.999 0 011 19.763c0-.545.454-.985 1.012-.985h21.6z" fill="#5CB615" fill-rule="nonzero"/></svg>
